X:1
T:Agni Parthene
T:Agni Parthene
T:Anonymous
T:Nectarios of Aegina
C:Anonymous
Z:Nectarios of Aegina
%%score ( 1 2 3 )
L:1/8
Q:1/4=120
M:3/4
K:F
V:1 treble nm="Piano" snm="Pno."
V:2 treble 
V:3 treble 
V:1
 D2 | D4 E2 | F4 F2 | G2 F2 E2 | D4 F2 | E4 D2 | C4 C2 | D2 F2 E2 | D6 | F2 D2 D2 | E4 C2 | D6- | %12
w: Ag-|ni Par-|the- ne|Des- * pœ-|na, a-|khran- te|The- o-|to- * *|ke,|nim- phi a-|nim- phef-|te.|
 D4 D2 | D4 E2 | F4 F2 | G2 F2 E2 | D4 F2 | E4 D2 | C4 C2 | D2 F2 E2 | D6 | F2 D2 D2 | E4 C2 | %23
w: * Par-|the- ne|mi- tir|a- * nas-|sa, Pa-|nen- dro-|se te|po- * *|ke|nim- phi a-|nim- phef-|
 D6- | D4 DE | F4 G2 | A4 A2 | BA G2 G2 | A4 c2 | =B4 A2 | G4 G2 | A4 B2 | A6 | c2 A2 A2 | B4 G2 | %35
w: te.|* I- *|psi- lo-|te- ra|ou- * * ra-|non, ak-|ti- non|lam- pro-|te- *|ra|nim- phi a-|nim- phef-|
 A6- | A4 DE | F4 G2 | A4 A2 | BA G2 G2 | A4 c2 | =B4 A2 | G4 G2 | A4 B2 | A6 | c2 A2 A2 | B4 G2 | %47
w: te.|* Kha- *|ra par-|the- ni-|kon _ _ kho-|ron, an-|ge- lon|i- per-|te- *|ra,|nim- phi a-|nim- phef-|
 A6- | A4 A=B | c4 c2 | d4 d2 | cB A2 G2 | F4 B2 | A4 G2 | F4 E2 | D4 B2 | A6 | F2 D2 D2 | E4 C2 | %59
w: te.|* Ek- *|lam- pro-|te- ra|ou- * * ra-|non, pho-|tos ka-|tha- ro-|te- *|ra,|nim- phi a-|nim- phef-|
 D6- | D4 A=B | c4 c2 | d4 d2 | cB A2 G2 | F4 B2 | A4 G2 | F4 E2 | D2 F2 E2 | D6 | F2 D2 D2 | %70
w: te.|* Ton _|ou- ra-|ni- on|stra- * * ti-|on, pa-|son a-|gi- o-|te- * *|ra.|nim- phi a-|
 E4 C2 | D6- | D4 z2 |] %73
w: nim- phef-|te.||
V:2
 !stemless!D2 | x6 | x6 | x6 | x6 | !stemless!C4 x2 | x6 | !stemless!D2 x4 | x6 | x6 | %10
 !stemless!C4 x2 | D6 | x6 | x6 | x6 | x6 | x6 | !stemless!C4 x2 | x6 | !stemless!D2 x4 | x6 | x6 | %22
 !stemless!C4 x2 | D6 | x6 | x6 | x6 | !stemless!G x5 | !stemless!A4 x2 | !stemless!G4 x2 | x6 | %31
 !stemless!A4 x2 | x6 | x6 | !stemless!G4 x2 | A6 | x4 !stemless!D x | x6 | x6 | !stemless!G x5 | %40
 !stemless!A4 x2 | !stemless!G4 x2 | x6 | !stemless!A4 x2 | x6 | x6 | !stemless!G4 x2 | A6 | x6 | %49
 x6 | !stemless!B4 x2 | !stemless!F x5 | x6 | !stemless!D4 x2 | x6 | x6 | x6 | x6 | %58
 !stemless!C4 x2 | D6 | x6 | x6 | !stemless!B4 x2 | !stemless!F x5 | x6 | !stemless!D4 x2 | x6 | %67
 x6 | x6 | x6 | !stemless!C4 x2 | D6 | x6 |] %73
V:3
 x2 | x6 | x6 | x6 | x6 | x6 | x6 | x6 | D4 E2 | x6 | x6 | x6 | x6 | x6 | x6 | x6 | x6 | x6 | x6 | %19
w: |||||||||||||||||||
w: ||||||||Khe- re|||||||||||
 x6 | D4 E2 | x6 | x6 | x6 | x6 | x6 | x6 | x6 | x6 | x6 | x6 | x6 | A4 =B2 | x6 | x6 | x6 | x6 | %37
w: ||||||||||||||||||
w: |Khe- re||||||||||||Khe- re|||||
 x6 | x6 | x6 | x6 | x6 | x6 | x6 | A4 =B2 | x6 | x6 | x6 | x6 | x6 | x6 | x6 | x6 | x6 | x6 | x6 | %56
w: |||||||||||||||||||
w: |||||||Khe- re||||||||||||
 D4 E2 | x6 | x6 | x6 | x6 | x6 | x6 | x6 | x6 | x6 | x6 | x6 | D4 E2 | x6 | x6 | x6 | x6 |] %73
w: |||||||||||||||||
w: Khe- re||||||||||||Khe- re|||||

